src/4-icons/look-for.svg

<svg width="260" height="260" viewBox="0 0 260 260" fill="none" xmlns="http://www.w3.org/2000/svg">
<path d="M95.3539 87.9098C95.9227 88.2038 96.5538 88.3569 97.1941 88.3562V88.3862C97.9276 88.387 98.6472 88.186 99.2741 87.8053C99.901 87.4245 100.411 86.8787 100.749 86.2274C101.086 85.5762 101.238 84.8447 101.188 84.1129C101.137 83.3812 100.886 82.6774 100.463 82.0786C94.845 74.1217 82.01 68.9736 67.7654 68.9736C53.5209 68.9736 40.6859 74.0917 35.088 82.0486C34.5561 82.9131 34.373 83.9476 34.5757 84.9422C34.7783 85.9368 35.3517 86.8171 36.1795 87.4045C37.0073 87.992 38.0275 88.2427 39.0332 88.1057C40.039 87.9687 40.955 87.4543 41.5955 86.6668C45.7039 80.8491 56.2199 76.9706 67.7654 76.9706C79.311 76.9706 89.827 80.8491 93.9254 86.6668C94.2952 87.1896 94.7851 87.6159 95.3539 87.9098Z" fill="black"/>
<path d="M218.027 87.9098C218.596 88.2038 219.227 88.3569 219.867 88.3562V88.3862C220.6 88.387 221.32 88.186 221.947 87.8053C222.574 87.4245 223.084 86.8787 223.422 86.2274C223.759 85.5762 223.911 84.8447 223.86 84.1129C223.81 83.3812 223.559 82.6774 223.136 82.0786C217.518 74.1217 204.673 68.9736 190.428 68.9736C176.184 68.9736 163.349 74.0817 157.731 82.0786C157.428 82.5079 157.212 82.9926 157.096 83.5053C156.98 84.0179 156.966 84.5483 157.055 85.0663C157.145 85.5842 157.335 86.0796 157.615 86.524C157.896 86.9684 158.261 87.3532 158.691 87.6564C159.12 87.9597 159.605 88.1754 160.117 88.2913C160.63 88.4072 161.16 88.421 161.678 88.3318C162.196 88.2427 162.691 88.0525 163.136 87.7719C163.58 87.4914 163.965 87.1261 164.268 86.6968C168.367 80.8791 178.833 76.9706 190.428 76.9706C202.024 76.9706 212.5 80.8491 216.598 86.6668C216.968 87.1896 217.458 87.6159 218.027 87.9098Z" fill="black"/>
<path d="M202.214 106.519C202.925 107.09 203.811 107.4 204.723 107.399C205.549 107.397 206.355 107.14 207.029 106.663C207.703 106.185 208.213 105.51 208.488 104.731C208.763 103.952 208.79 103.107 208.565 102.312C208.34 101.517 207.874 100.811 207.232 100.291C200.775 95.1033 191.738 92.1045 182.442 92.1045C171.656 92.1045 164.119 96.2829 158.751 99.9215C158.316 100.217 157.944 100.595 157.656 101.034C157.367 101.473 157.168 101.965 157.07 102.481C156.971 102.997 156.976 103.527 157.082 104.042C157.189 104.556 157.396 105.045 157.691 105.479C157.986 105.914 158.365 106.286 158.804 106.574C159.243 106.863 159.734 107.062 160.251 107.16C160.767 107.259 161.297 107.254 161.812 107.148C162.326 107.041 162.814 106.834 163.249 106.539C166.812 104.113 170.806 101.823 175.982 100.746C175.309 101.912 174.924 103.266 174.924 104.71C174.924 109.099 178.482 112.657 182.871 112.657C187.26 112.657 190.818 109.099 190.818 104.71C190.818 103.314 190.458 102.002 189.826 100.861C196.249 102.226 200.435 105.082 202.214 106.519Z" fill="black"/>
<path d="M53.471 107.399C52.6447 107.397 51.8391 107.14 51.165 106.663C50.4908 106.185 49.9811 105.51 49.7061 104.731C49.431 103.952 49.4041 103.107 49.629 102.312C49.8539 101.517 50.3195 100.811 50.9619 100.291C57.4194 95.0834 66.456 92.1045 75.7524 92.1045C86.5382 92.1045 94.0753 96.2829 99.4433 99.9215C99.8778 100.217 100.25 100.595 100.538 101.034C100.827 101.473 101.026 101.965 101.124 102.481C101.223 102.997 101.218 103.527 101.112 104.042C101.005 104.556 100.798 105.045 100.503 105.479C100.208 105.914 99.8295 106.286 99.3903 106.574C98.9511 106.863 98.4595 107.062 97.9434 107.16C97.4273 107.259 96.8969 107.254 96.3824 107.148C95.868 107.041 95.3795 106.834 94.945 106.539C91.3817 104.113 87.3882 101.823 82.2116 100.745C82.8844 101.912 83.2694 103.266 83.2694 104.71C83.2694 109.099 79.7114 112.657 75.3224 112.657C70.9335 112.657 67.3755 109.099 67.3755 104.71C67.3755 103.314 67.7355 102.002 68.3677 100.861C61.945 102.226 57.7593 105.082 55.98 106.519C55.2685 107.09 54.3832 107.4 53.471 107.399Z" fill="black"/>
<path fill-rule="evenodd" clip-rule="evenodd" d="M129.052 230.411C107.06 230.411 85.4886 218.356 84.5789 217.846C83.8087 217.41 83.205 216.73 82.8627 215.914C82.5204 215.097 82.4588 214.19 82.6875 213.335C82.9161 212.479 83.4222 211.724 84.1264 211.188C84.8305 210.651 85.6928 210.363 86.5782 210.369C92.3865 210.301 98.1165 209.021 103.402 206.611C104.281 206.241 105.111 205.881 105.901 205.531L106.244 205.381C107.378 204.886 108.459 204.413 109.449 204.032C111.079 203.359 112.808 202.961 114.567 202.852C115.723 202.818 116.872 203.047 117.926 203.522C118.361 203.679 118.847 203.88 119.364 204.093L119.366 204.094C119.704 204.234 120.056 204.379 120.415 204.521C120.846 204.692 121.268 204.878 121.699 205.068C122.178 205.28 122.668 205.496 123.194 205.701C125.055 206.513 127.053 206.967 129.082 207.04C131.704 206.892 134.268 206.211 136.619 205.041L137.978 204.451L138.1 204.399C138.911 204.05 139.638 203.738 140.248 203.452C141.29 202.994 142.418 202.765 143.556 202.782C145.311 202.891 147.037 203.286 148.664 203.952C149.782 204.359 150.999 204.892 152.289 205.457L152.503 205.551C157.291 207.67 163.259 210.299 171.595 210.299C172.468 210.308 173.314 210.602 174.004 211.137C174.693 211.671 175.189 212.417 175.416 213.259C175.643 214.102 175.587 214.996 175.258 215.804C174.93 216.613 174.345 217.291 173.595 217.736C172.775 218.296 152.103 230.411 129.052 230.411ZM100.303 216.267C108.04 219.266 118.626 222.415 129.052 222.415C139.958 222.415 150.474 219.296 158.041 216.307C155.034 215.358 152.09 214.223 149.224 212.908L148.851 212.743C147.719 212.242 146.732 211.805 145.875 211.499C145.098 211.181 144.286 210.956 143.456 210.829L143.066 210.959C142.585 211.143 142.027 211.388 141.407 211.66L141.137 211.779L139.708 212.388C136.385 214.005 132.764 214.917 129.072 215.067C126.036 215.007 123.04 214.365 120.245 213.178C119.167 212.758 118.171 212.321 117.292 211.934L117.166 211.879C116.257 211.479 115.627 211.209 115.087 211.009L114.627 210.849C113.823 210.964 113.037 211.183 112.288 211.499C111.359 211.849 110.289 212.318 109.07 212.858L108.861 212.95C108.105 213.282 107.312 213.63 106.471 213.978C104.469 214.847 102.424 215.612 100.343 216.267H100.303Z" fill="black"/>
<path d="M108.879 169.745C110.559 178.432 119.106 184.739 129.102 184.739C139.128 184.739 147.635 178.432 149.314 169.745C149.478 168.72 149.237 167.671 148.642 166.821C148.047 165.97 147.145 165.384 146.126 165.187C145.107 164.989 144.051 165.196 143.181 165.763C142.312 166.33 141.697 167.213 141.467 168.225C140.527 173.084 135.219 176.752 129.102 176.752C122.984 176.752 117.666 173.084 116.726 168.225C116.496 167.213 115.881 166.33 115.012 165.763C114.142 165.196 113.087 164.989 112.067 165.187C111.048 165.384 110.146 165.97 109.551 166.821C108.956 167.671 108.715 168.72 108.879 169.745Z" fill="black"/>
</svg>

<svg width="260" height="260" fill="none" xmlns="http://www.w3.org/2000/svg"><path d="M95.354 87.91c.569.294 1.2.447 1.84.446v.03a3.999 3.999 0 0 0 3.269-6.307c-5.618-7.957-18.453-13.105-32.698-13.105-14.244 0-27.08 5.118-32.677 13.075a3.998 3.998 0 0 0 6.508 4.618c4.108-5.818 14.624-9.696 26.17-9.696 11.545 0 22.061 3.878 26.16 9.696.37.523.86.949 1.428 1.243Zm122.673 0c.569.294 1.2.447 1.84.446v.03a4 4 0 0 0 3.993-4.273 4 4 0 0 0-.724-2.034c-5.618-7.957-18.463-13.105-32.708-13.105-14.244 0-27.079 5.108-32.697 13.105a4.009 4.009 0 0 0-.676 2.987 4 4 0 0 0 4.623 3.266 4.006 4.006 0 0 0 2.59-1.635c4.099-5.818 14.565-9.726 26.16-9.726 11.596 0 22.072 3.878 26.17 9.696.37.523.86.949 1.429 1.243Zm-15.813 18.609a4 4 0 0 0 6.351-4.207 4.005 4.005 0 0 0-1.333-2.021c-6.457-5.188-15.494-8.186-24.79-8.186-10.786 0-18.323 4.178-23.691 7.816a3.992 3.992 0 0 0-1.681 2.56 4 4 0 0 0 6.179 4.058c3.563-2.426 7.557-4.716 12.733-5.793a7.947 7.947 0 1 0 13.844.115c6.423 1.365 10.609 4.221 12.388 5.658Zm-148.743.88a4.001 4.001 0 0 1-2.51-7.108c6.458-5.208 15.495-8.186 24.791-8.186 10.786 0 18.323 4.178 23.691 7.816a3.998 3.998 0 0 1 1.669 4.121 4.012 4.012 0 0 1-1.722 2.532 4 4 0 0 1-4.445-.035c-3.563-2.426-7.557-4.716-12.733-5.794a7.947 7.947 0 1 1-13.844.116c-6.423 1.365-10.609 4.221-12.388 5.658a4.001 4.001 0 0 1-2.509.88Z" fill="#000"/><path fill-rule="evenodd" clip-rule="evenodd" d="M129.052 230.411c-21.992 0-43.563-12.055-44.473-12.565a3.997 3.997 0 0 1 2-7.477 41.729 41.729 0 0 0 16.823-3.758c.879-.37 1.709-.73 2.499-1.08l.343-.15c1.134-.495 2.215-.968 3.205-1.349a16.002 16.002 0 0 1 5.118-1.18 7.63 7.63 0 0 1 3.359.67c.435.157.921.358 1.438.571l.002.001c.338.14.69.285 1.049.427.431.171.853.357 1.284.547.479.212.969.428 1.495.633a16.18 16.18 0 0 0 5.888 1.339 19.367 19.367 0 0 0 7.537-1.999l1.359-.59.122-.052c.811-.349 1.538-.661 2.148-.947a7.927 7.927 0 0 1 3.308-.67c1.755.109 3.481.504 5.108 1.17 1.118.407 2.335.94 3.625 1.505l.214.094c4.788 2.119 10.756 4.748 19.092 4.748a3.998 3.998 0 0 1 2 7.437c-.82.56-21.492 12.675-44.543 12.675Zm-28.749-14.144c7.737 2.999 18.323 6.148 28.749 6.148 10.906 0 21.422-3.119 28.989-6.108a75.96 75.96 0 0 1-8.817-3.399l-.373-.165c-1.132-.501-2.119-.938-2.976-1.244a10.632 10.632 0 0 0-2.419-.67l-.39.13c-.481.184-1.039.429-1.659.701l-.27.119-1.429.609a26.793 26.793 0 0 1-10.636 2.679 23.784 23.784 0 0 1-8.827-1.889 72.917 72.917 0 0 1-2.953-1.244l-.126-.055c-.909-.4-1.539-.67-2.079-.87l-.46-.16a9.466 9.466 0 0 0-2.339.65c-.929.35-1.999.819-3.218 1.359l-.209.092c-.756.332-1.549.68-2.39 1.028a62.573 62.573 0 0 1-6.128 2.289h-.04Z" fill="#000"/><path d="M108.879 169.745c1.68 8.687 10.227 14.994 20.223 14.994 10.026 0 18.533-6.307 20.212-14.994a3.998 3.998 0 0 0-7.847-1.52c-.94 4.859-6.248 8.527-12.365 8.527-6.118 0-11.436-3.668-12.376-8.527a3.998 3.998 0 0 0-7.847 1.52Z" fill="#000"/></svg>
